picto/alarm-framed.svg

<svg class="color-immutable" width="30" height="30" viewBox="0 0 30 30" fill="none" xmlns="http://www.w3.org/2000/svg"><path d="M30 0H0V30H30V0Z" fill="#2D327D"/><path d="M25.5 3C26.325 3 27 3.675 27 4.5V25.5C27 26.325 26.325 27 25.5 27H4.5C3.675 27 3 26.325 3 25.5V4.5C3 3.675 3.675 3 4.5 3H25.5ZM25.5 2.625H4.5C3.46613 2.625 2.625 3.46613 2.625 4.5V25.5C2.625 26.5339 3.46613 27.375 4.5 27.375H25.5C26.5339 27.375 27.375 26.5339 27.375 25.5V4.5C27.375 3.46613 26.5339 2.625 25.5 2.625Z" fill="white"/><path d="M21.1497 19.1841C21.1441 18.7356 20.885 18.3484 20.5091 18.1588C20.4997 18.1542 20.4902 18.1496 20.4806 18.1448C19.8448 17.8288 18.7655 17.0734 18.7655 15.5864C18.7655 13.7882 18.6371 12.8366 18.3074 12.1922C17.9418 11.4777 17.3156 11.1522 16.2839 11.1398C16.2992 10.8731 16.3084 10.2939 15.9463 9.87578C15.7895 9.69481 15.4982 9.47903 15.0001 9.47903C14.5021 9.47903 14.2106 9.69473 14.0539 9.87578C13.6918 10.2938 13.7009 10.873 13.7162 11.1398C12.6845 11.1521 12.0583 11.4776 11.6927 12.1922C11.3631 12.8365 11.2346 13.7881 11.2346 15.5864C11.2346 17.0734 10.1554 17.8288 9.51962 18.1448C9.51002 18.1496 9.5005 18.1542 9.49105 18.1588C9.11507 18.3485 8.8561 18.7356 8.85047 19.1841L8.8501 20.0561H21.1501L21.1497 19.1841ZM14.5198 10.2794C14.627 10.1557 14.784 10.0955 15.0001 10.0955C15.2161 10.0955 15.3732 10.1557 15.4804 10.2794C15.6853 10.5161 15.6706 10.9533 15.6673 11.1387H14.3329C14.3296 10.9533 14.3149 10.516 14.5198 10.2794Z" fill="white"/><path d="M13.7687 20.3636C13.7364 20.476 13.7188 20.5945 13.7188 20.7172C13.7188 21.4249 14.2923 21.9985 15 21.9985C15.7076 21.9985 16.2812 21.4249 16.2812 20.7172C16.2812 20.5945 16.2634 20.476 16.2313 20.3636H13.7687Z" fill="white"/><path d="M20.6584 15.247C20.6105 15.247 20.5618 15.2378 20.5148 15.2183C20.3235 15.139 20.2327 14.9196 20.3121 14.7283C20.5197 14.2277 20.6249 13.6965 20.6249 13.1494C20.6249 12.0476 20.1958 11.0118 19.4167 10.2326C19.2703 10.0861 19.2703 9.8487 19.4167 9.7023C19.5632 9.5559 19.8006 9.5559 19.9471 9.7023C20.8679 10.623 21.375 11.8473 21.375 13.1494C21.375 13.7955 21.2505 14.4234 21.0049 15.0155C20.9451 15.1599 20.8055 15.247 20.6584 15.247Z" fill="white"/><path d="M22.7377 16.1084C22.6898 16.1084 22.6412 16.0991 22.5942 16.0796C22.4029 16.0003 22.3121 15.7809 22.3914 15.5896C22.7123 14.8157 22.875 13.9948 22.875 13.1494C22.875 11.4465 22.2119 9.84564 21.0078 8.64159C20.8613 8.49511 20.8613 8.25766 21.0078 8.11126C21.1543 7.96486 21.3917 7.96486 21.5381 8.11126C22.8839 9.45699 23.625 11.2463 23.625 13.1494C23.625 14.0938 23.4431 15.0115 23.0843 15.8768C23.0244 16.0212 22.8848 16.1084 22.7377 16.1084Z" fill="white"/><path d="M9.34163 15.247C9.19455 15.247 9.05497 15.1599 8.99505 15.0156C8.7495 14.4234 8.625 13.7956 8.625 13.1494C8.625 11.8473 9.13207 10.6231 10.0528 9.7023C10.1993 9.5559 10.4367 9.5559 10.5832 9.7023C10.7296 9.84877 10.7296 10.0862 10.5832 10.2326C9.80407 11.0117 9.375 12.0476 9.375 13.1494C9.375 13.6964 9.48023 14.2276 9.68783 14.7282C9.76718 14.9195 9.67643 15.139 9.4851 15.2182C9.43815 15.2378 9.38948 15.247 9.34163 15.247Z" fill="white"/><path d="M7.26233 16.1084C7.11525 16.1084 6.9756 16.0212 6.91575 15.8769C6.55695 15.0115 6.375 14.0939 6.375 13.1494C6.375 11.2463 7.11615 9.45699 8.46187 8.11126C8.60835 7.96486 8.84573 7.96486 8.9922 8.11126C9.13868 8.25774 9.13868 8.49519 8.9922 8.64159C7.78808 9.84571 7.125 11.4466 7.125 13.1494C7.125 13.9947 7.28767 14.8157 7.6086 15.5896C7.68795 15.7809 7.59713 16.0003 7.4058 16.0796C7.35885 16.0991 7.31018 16.1084 7.26233 16.1084Z" fill="white"/></svg>

<svg class="color-immutable" width="30" height="30" viewBox="0 0 30 30" fill="none" xmlns="http://www.w3.org/2000/svg"><g clip-path="url(#a)"><path d="M30 0H0v30h30V0Z" fill="#2D327D"/><path d="M25.5 3c.825 0 1.5.675 1.5 1.5v21c0 .825-.675 1.5-1.5 1.5h-21c-.825 0-1.5-.675-1.5-1.5v-21C3 3.675 3.675 3 4.5 3h21Zm0-.375h-21A1.877 1.877 0 0 0 2.625 4.5v21c0 1.034.841 1.875 1.875 1.875h21a1.877 1.877 0 0 0 1.875-1.875v-21A1.877 1.877 0 0 0 25.5 2.625Z" fill="#fff"/><path d="M21.15 19.184a1.164 1.164 0 0 0-.64-1.025l-.03-.014c-.635-.316-1.715-1.072-1.715-2.559 0-1.798-.128-2.75-.458-3.394-.365-.714-.991-1.04-2.023-1.052.015-.267.024-.846-.338-1.264-.156-.181-.448-.397-.946-.397-.498 0-.79.216-.946.397-.362.418-.353.997-.338 1.264-1.031.012-1.658.338-2.023 1.052-.33.644-.458 1.596-.458 3.394 0 1.487-1.08 2.243-1.715 2.559l-.029.014c-.376.19-.635.577-.64 1.025v.872h12.3l-.001-.872Zm-6.63-8.905c.107-.123.264-.184.48-.184.216 0 .373.06.48.184.205.237.19.674.187.86h-1.334c-.003-.186-.018-.623.187-.86ZM13.769 20.364a1.281 1.281 0 1 0 2.463 0h-2.463ZM20.658 15.247a.374.374 0 0 1-.346-.519 4.1 4.1 0 0 0 .313-1.579c0-1.101-.43-2.137-1.208-2.916a.375.375 0 0 1 .53-.53 4.843 4.843 0 0 1 1.428 3.446c0 .647-.125 1.274-.37 1.867a.375.375 0 0 1-.347.231ZM22.738 16.108a.375.375 0 0 1-.346-.519c.32-.773.483-1.594.483-2.44a6.333 6.333 0 0 0-1.867-4.507.375.375 0 1 1 .53-.53 7.078 7.078 0 0 1 2.087 5.037c0 .945-.182 1.863-.54 2.728a.375.375 0 0 1-.347.231ZM9.342 15.247a.375.375 0 0 1-.347-.231 4.847 4.847 0 0 1-.37-1.867c0-1.302.507-2.526 1.428-3.447a.375.375 0 0 1 .53.53 4.098 4.098 0 0 0-1.208 2.917 4.1 4.1 0 0 0 .313 1.58.375.375 0 0 1-.346.518ZM7.262 16.108a.375.375 0 0 1-.346-.231 7.085 7.085 0 0 1-.541-2.728c0-1.903.741-3.692 2.087-5.038a.375.375 0 0 1 .53.53 6.333 6.333 0 0 0-1.867 4.508c0 .846.163 1.667.484 2.44a.375.375 0 0 1-.347.52Z" fill="#fff"/></g><defs><clipPath id="a"><path fill="#fff" d="M0 0h30v30H0z"/></clipPath></defs></svg>
